X: 1
T: My Wife's A Drunkard
M: 4/4
L: 1/8
R: reel
K: Dmaj
a>e e/2e/2e a2 ef|gede g2 g2|a>e e/2e/2e a2 e2|dBGB A3 z:|
eAcA e2 ge|dBGB d2 d2|eAcA e2 ge|dBGB A3 z:|
